Newaita-dark/apps/64/fluid-demo.svg

<svg height="64" viewBox="0 0 64 64" width="64" xmlns="http://www.w3.org/2000/svg" xmlns:xlink="http://www.w3.org/1999/xlink"><linearGradient id="a"><stop offset="0" stop-opacity=".313726"/><stop offset=".222222" stop-opacity=".27451"/><stop offset="1" stop-opacity="0"/></linearGradient><radialGradient id="b" cx="450.908936" cy="189.579361" gradientTransform="matrix(.00000035 -.156265 -.281277 -.0000002 89.046304 127.190659)" gradientUnits="userSpaceOnUse" r="21.166656" xlink:href="#a"/><radialGradient id="c" cx="450.908936" cy="189.579361" gradientTransform="matrix(-.00000035 .156265 .281277 .0000002 -25.540237 -15.054964)" gradientUnits="userSpaceOnUse" r="21.166656" xlink:href="#a"/><radialGradient id="d" cx="450.908936" cy="189.579361" gradientTransform="matrix(-.00000035 -.156265 .281277 -.0000002 -25.540237 127.190659)" gradientUnits="userSpaceOnUse" r="21.166656" xlink:href="#a"/><radialGradient id="e" cx="450.908936" cy="189.579361" gradientTransform="matrix(.00000035 .156265 -.281277 .0000002 89.0463 -15.054965)" gradientUnits="userSpaceOnUse" r="21.166656" xlink:href="#a"/><linearGradient id="f" gradientTransform="matrix(.0267201 0 0 .125012 24.930772 26.877567)" gradientUnits="userSpaceOnUse" x1="255.323059" x2="255.323044" y1="233.5" y2="254.666656"><stop offset="0" stop-opacity=".27451"/><stop offset="1" stop-opacity="0"/></linearGradient><linearGradient id="g" gradientUnits="userSpaceOnUse" x1="232.833328" x2="232.833328" y1="233.5" y2="-168.666656"><stop offset="0" stop-color="#ef5350"/><stop offset="1" stop-color="#e57373"/></linearGradient><linearGradient id="h" gradientUnits="userSpaceOnUse" x1="5.32224605031" x2="5.32224605031" y1="2.89530571449" y2=".52035140366"><stop offset="0" stop-color="#e0e0e0"/><stop offset="1" stop-color="#eee"/></linearGradient><path d="m36.382812 56.066406h5.292969v-2.644531h-5.292969zm0 0" fill="url(#b)"/><path d="m27.121094 56.066406h-5.289063v2.648438h5.289063zm0 0" fill="url(#c)"/><path d="m27.121094 56.066406h-5.289063v-2.644531h5.289063zm0 0" fill="url(#d)"/><path d="m36.382812 56.066406h5.292969v2.648438h-5.292969zm0 0" fill="url(#e)"/><path d="m27.121094 55.40625h9.261718v3.308594h-9.261718zm0 0" fill="url(#f)"/><path d="m254.006994-168.660675c111.051895 0 201.074548 90.022653 201.074548 201.074548s-90.022653 201.074548-201.074548 201.074548c-111.051896 0-201.105796-90.022653-201.105796-201.074548s90.0539-201.074548 201.105796-201.074548zm0 0" fill="url(#g)" stroke="#333" stroke-linecap="round" stroke-width="3" transform="matrix(.125012 0 0 .125012 0 26.877566)"/><path d="m31.753906 56.066406c-13.925781 0-25.140625-11.210937-25.140625-25.136718 0-.082032.003907-.164063.003907-.246094.128906 13.8125 11.292968 24.890625 25.136718 24.890625s25.003906-11.078125 25.136719-24.890625v.246094c0 13.925781-11.210937 25.136718-25.136719 25.136718zm0 0" fill-opacity=".196078"/><path d="m31.753906 5.792969c-13.925781 0-25.140625 11.210937-25.140625 25.136719 0 .082031.003907.164062.003907.246093.128906-13.8125 11.292968-24.890625 25.136718-24.890625s25.003906 11.078125 25.136719 24.890625c0-.082031 0-.164062 0-.246093 0-13.925782-11.210937-25.136719-25.136719-25.136719zm0 0" fill="#fff" fill-opacity=".392157"/><path d="m31.753906 5.605469c-14.027344 0-25.328125 11.296875-25.328125 25.324219 0 14.027343 11.300781 25.324218 25.328125 25.324218s25.324219-11.296875 25.324219-25.324218c0-14.027344-11.296875-25.324219-25.324219-25.324219zm0 .375c13.824219 0 24.949219 11.125 24.949219 24.949219 0 13.824218-11.125 24.949218-24.949219 24.949218-13.828125 0-24.953125-11.125-24.953125-24.949218 0-13.824219 11.125-24.949219 24.953125-24.949219zm0 0" fill="#212121"/><path d="m20.027344 19.449219 5.332031 8.484375-9.273437-2.128906 12.542968 10.539062-.523437.5625-.273438.289062s.203125.550782.445313 1.214844l-7.671875 3.765625h9.042969l3.242187-2.25 7.644531-5.308593 3.460938-2.402344-.472656-7.082032v-.449218l3.839843.449218-3.839843-4.125-4.953126.75-.878906.132813-1.605468 3.914063-.949219 1.691406zm0 0" fill="url(#h)"/><path d="m20.027344 19.449219.9375 1.492187 14.171875 7.546875.949219-1.691406 1.605468-3.914063.878906-.132812 4.953126-.75 2.804687 3.011719 1.035156.121093-3.839843-4.125-4.953126.75-.878906.132813-1.605468 3.914063-.949219 1.691406zm23.496094 6.226562v.449219l.410156 6.132812.0625-.042968-.433594-6.535156zm-27.4375.128907 1.625 1.367187 7.648437 1.753906-.730469-1.15625zm12.023437 11.09375-.003906.007812-.273438.289062s.15625.421876.261719.714844l.011719-.011718.523437-.5625zm-.140625 1.660156-7.363281 3.617187h2.019531l5.652344-2.773437c-.167969-.460938-.234375-.636719-.308594-.84375zm0 0" fill="#fff" fill-opacity=".970968"/><path d="m20.027344 20.441406 4.601562 7.328125.730469.164063-4.394531-6.992188zm23.496094 4.242188v.449218l.039062.546876 3.800781.445312-1.035156-1.113281zm-27.4375 2.113281 12.023437 10.101563.519531-.554688-10.917968-9.171875zm27.847656 5.460937-3.398438 2.359376-7.644531 5.308593-3.242187 2.25h-7.023438l-2.019531.992188h9.042969l3.242187-2.25 7.644531-5.308594 3.460938-2.402344zm-15.839844 5.652344-.261719.277344s.105469.28125.136719.371094l.308594-.148438c-.101563-.273437-.109375-.296875-.183594-.5zm0 0" fill-opacity=".235294"/><path d="m605.493171 588.014735 161.205069 256.510924-280.366912-64.363929 379.215735 318.630973-15.825259 17.006249-8.266927 8.739323s6.141146 16.651952 13.463281 36.728774l-231.946343 113.84739h273.399075l98.02213-68.024997 231.119649-160.496476 104.635672-72.630855-14.289973-214.113401v-13.581379l116.09127 13.581379-116.09127-124.712493-149.749471 22.674999-26.572265 4.015364-48.538669 118.33515-28.698045 51.136846zm0 0" fill="none" stroke="#212121" stroke-width="11.338582" transform="matrix(.0330761 0 0 .0330761 .000005 -.000002)"/></svg>

<?xml version="1.0" encoding="UTF-8"?>
<svg xmlns="http://www.w3.org/2000/svg" xmlns:xlink="http://www.w3.org/1999/xlink" width="64px" height="64px" viewBox="0 0 64 64" version="1.1">
<defs>
<radialGradient id="radial0" gradientUnits="userSpaceOnUse" cx="450.908936" cy="189.579361" fx="450.908936" fy="189.579361" r="21.166656" gradientTransform="matrix(0.000000348341,-0.156265,-0.281277,-0.000000203077,89.046304,127.190659)">
<stop offset="0" style="stop-color:rgb(0%,0%,0%);stop-opacity:0.313726;"/>
<stop offset="0.222222" style="stop-color:rgb(0%,0%,0%);stop-opacity:0.27451;"/>
<stop offset="1" style="stop-color:rgb(0%,0%,0%);stop-opacity:0;"/>
</radialGradient>
<radialGradient id="radial1" gradientUnits="userSpaceOnUse" cx="450.908936" cy="189.579361" fx="450.908936" fy="189.579361" r="21.166656" gradientTransform="matrix(-0.000000348341,0.156265,0.281277,0.000000203077,-25.540237,-15.054964)">
<stop offset="0" style="stop-color:rgb(0%,0%,0%);stop-opacity:0.313726;"/>
<stop offset="0.222222" style="stop-color:rgb(0%,0%,0%);stop-opacity:0.27451;"/>
<stop offset="1" style="stop-color:rgb(0%,0%,0%);stop-opacity:0;"/>
</radialGradient>
<radialGradient id="radial2" gradientUnits="userSpaceOnUse" cx="450.908936" cy="189.579361" fx="450.908936" fy="189.579361" r="21.166656" gradientTransform="matrix(-0.000000348341,-0.156265,0.281277,-0.000000203077,-25.540237,127.190659)">
<stop offset="0" style="stop-color:rgb(0%,0%,0%);stop-opacity:0.313726;"/>
<stop offset="0.222222" style="stop-color:rgb(0%,0%,0%);stop-opacity:0.27451;"/>
<stop offset="1" style="stop-color:rgb(0%,0%,0%);stop-opacity:0;"/>
</radialGradient>
<radialGradient id="radial3" gradientUnits="userSpaceOnUse" cx="450.908936" cy="189.579361" fx="450.908936" fy="189.579361" r="21.166656" gradientTransform="matrix(0.000000348341,0.156265,-0.281277,0.000000203077,89.0463,-15.054965)">
<stop offset="0" style="stop-color:rgb(0%,0%,0%);stop-opacity:0.313726;"/>
<stop offset="0.222222" style="stop-color:rgb(0%,0%,0%);stop-opacity:0.27451;"/>
<stop offset="1" style="stop-color:rgb(0%,0%,0%);stop-opacity:0;"/>
</radialGradient>
<linearGradient id="linear0" gradientUnits="userSpaceOnUse" x1="255.323059" y1="233.5" x2="255.323044" y2="254.666656" gradientTransform="matrix(0.0267201,0,0,0.125012,24.930772,26.877567)">
<stop offset="0" style="stop-color:rgb(0%,0%,0%);stop-opacity:0.27451;"/>
<stop offset="1" style="stop-color:rgb(0%,0%,0%);stop-opacity:0;"/>
</linearGradient>
<linearGradient id="linear1" gradientUnits="userSpaceOnUse" x1="232.833328" y1="233.5" x2="232.833328" y2="-168.666656" >
<stop offset="0" style="stop-color:rgb(93.725491%,32.549021%,31.37255%);stop-opacity:1;"/>
<stop offset="1" style="stop-color:rgb(89.803922%,45.09804%,45.09804%);stop-opacity:1;"/>
</linearGradient>
<linearGradient id="linear2" gradientUnits="userSpaceOnUse" x1="160.908966" y1="87.534737" x2="160.908966" y2="15.732006" gradientTransform="matrix(0.0330761,0,0,0.0330761,0.00000520066,-0.00000172213)">
<stop offset="0" style="stop-color:rgb(87.843138%,87.843138%,87.843138%);stop-opacity:1;"/>
<stop offset="1" style="stop-color:rgb(93.333334%,93.333334%,93.333334%);stop-opacity:1;"/>
</linearGradient>
</defs>
<g id="surface1">
<path style=" stroke:none;fill-rule:nonzero;fill:url(#radial0);" d="M 36.382812 56.066406 L 41.675781 56.066406 L 41.675781 53.421875 L 36.382812 53.421875 Z M 36.382812 56.066406 "/>
<path style=" stroke:none;fill-rule:nonzero;fill:url(#radial1);" d="M 27.121094 56.066406 L 21.832031 56.066406 L 21.832031 58.714844 L 27.121094 58.714844 Z M 27.121094 56.066406 "/>
<path style=" stroke:none;fill-rule:nonzero;fill:url(#radial2);" d="M 27.121094 56.066406 L 21.832031 56.066406 L 21.832031 53.421875 L 27.121094 53.421875 Z M 27.121094 56.066406 "/>
<path style=" stroke:none;fill-rule:nonzero;fill:url(#radial3);" d="M 36.382812 56.066406 L 41.675781 56.066406 L 41.675781 58.714844 L 36.382812 58.714844 Z M 36.382812 56.066406 "/>
<path style=" stroke:none;fill-rule:nonzero;fill:url(#linear0);" d="M 27.121094 55.40625 L 36.382812 55.40625 L 36.382812 58.714844 L 27.121094 58.714844 Z M 27.121094 55.40625 "/>
<path style="fill-rule:nonzero;fill:url(#linear1);stroke-width:3;stroke-linecap:round;stroke-linejoin:miter;stroke:rgb(20%,20%,20%);stroke-opacity:1;stroke-miterlimit:4;" d="M 254.006994 -168.660675 C 365.058889 -168.660675 455.081542 -78.638022 455.081542 32.413873 C 455.081542 143.465768 365.058889 233.488421 254.006994 233.488421 C 142.955098 233.488421 52.901198 143.465768 52.901198 32.413873 C 52.901198 -78.638022 142.955098 -168.660675 254.006994 -168.660675 Z M 254.006994 -168.660675 " transform="matrix(0.125012,0,0,0.125012,0,26.877566)"/>
<path style=" stroke:none;fill-rule:nonzero;fill:rgb(0%,0%,0%);fill-opacity:0.196078;" d="M 31.753906 56.066406 C 17.828125 56.066406 6.613281 44.855469 6.613281 30.929688 C 6.613281 30.847656 6.617188 30.765625 6.617188 30.683594 C 6.746094 44.496094 17.910156 55.574219 31.753906 55.574219 C 45.597656 55.574219 56.757812 44.496094 56.890625 30.683594 C 56.890625 30.765625 56.890625 30.847656 56.890625 30.929688 C 56.890625 44.855469 45.679688 56.066406 31.753906 56.066406 Z M 31.753906 56.066406 "/>
<path style=" stroke:none;fill-rule:nonzero;fill:rgb(100%,100%,100%);fill-opacity:0.392157;" d="M 31.753906 5.792969 C 17.828125 5.792969 6.613281 17.003906 6.613281 30.929688 C 6.613281 31.011719 6.617188 31.09375 6.617188 31.175781 C 6.746094 17.363281 17.910156 6.285156 31.753906 6.285156 C 45.597656 6.285156 56.757812 17.363281 56.890625 31.175781 C 56.890625 31.09375 56.890625 31.011719 56.890625 30.929688 C 56.890625 17.003906 45.679688 5.792969 31.753906 5.792969 Z M 31.753906 5.792969 "/>
<path style=" stroke:none;fill-rule:nonzero;fill:rgb(12.941177%,12.941177%,12.941177%);fill-opacity:1;" d="M 31.753906 5.605469 C 17.726562 5.605469 6.425781 16.902344 6.425781 30.929688 C 6.425781 44.957031 17.726562 56.253906 31.753906 56.253906 C 45.78125 56.253906 57.078125 44.957031 57.078125 30.929688 C 57.078125 16.902344 45.78125 5.605469 31.753906 5.605469 Z M 31.753906 5.980469 C 45.578125 5.980469 56.703125 17.105469 56.703125 30.929688 C 56.703125 44.753906 45.578125 55.878906 31.753906 55.878906 C 17.925781 55.878906 6.800781 44.753906 6.800781 30.929688 C 6.800781 17.105469 17.925781 5.980469 31.753906 5.980469 Z M 31.753906 5.980469 "/>
<path style=" stroke:none;fill-rule:nonzero;fill:url(#linear2);" d="M 20.027344 19.449219 L 25.359375 27.933594 L 16.085938 25.804688 L 28.628906 36.34375 L 28.105469 36.90625 L 27.832031 37.195312 C 27.832031 37.195312 28.035156 37.746094 28.277344 38.410156 L 20.605469 42.175781 L 29.648438 42.175781 L 32.890625 39.925781 L 40.535156 34.617188 L 43.996094 32.214844 L 43.523438 25.132812 L 43.523438 24.683594 L 47.363281 25.132812 L 43.523438 21.007812 L 38.570312 21.757812 L 37.691406 21.890625 L 36.085938 25.804688 L 35.136719 27.496094 Z M 20.027344 19.449219 "/>
<path style=" stroke:none;fill-rule:nonzero;fill:rgb(100%,100%,100%);fill-opacity:0.970968;" d="M 20.027344 19.449219 L 20.964844 20.941406 L 35.136719 28.488281 L 36.085938 26.796875 L 37.691406 22.882812 L 38.570312 22.75 L 43.523438 22 L 46.328125 25.011719 L 47.363281 25.132812 L 43.523438 21.007812 L 38.570312 21.757812 L 37.691406 21.890625 L 36.085938 25.804688 L 35.136719 27.496094 Z M 43.523438 25.675781 L 43.523438 26.125 L 43.933594 32.257812 L 43.996094 32.214844 L 43.5625 25.679688 Z M 16.085938 25.804688 L 17.710938 27.171875 L 25.359375 28.925781 L 24.628906 27.769531 Z M 28.109375 36.898438 L 28.105469 36.90625 L 27.832031 37.195312 C 27.832031 37.195312 27.988281 37.617188 28.09375 37.910156 L 28.105469 37.898438 L 28.628906 37.335938 Z M 27.96875 38.558594 L 20.605469 42.175781 L 22.625 42.175781 L 28.277344 39.402344 C 28.109375 38.941406 28.042969 38.765625 27.96875 38.558594 Z M 27.96875 38.558594 "/>
<path style=" stroke:none;fill-rule:nonzero;fill:rgb(0%,0%,0%);fill-opacity:0.235294;" d="M 20.027344 20.441406 L 24.628906 27.769531 L 25.359375 27.933594 L 20.964844 20.941406 Z M 43.523438 24.683594 L 43.523438 25.132812 L 43.5625 25.679688 L 47.363281 26.125 L 46.328125 25.011719 Z M 16.085938 26.796875 L 28.109375 36.898438 L 28.628906 36.34375 L 17.710938 27.171875 Z M 43.933594 32.257812 L 40.535156 34.617188 L 32.890625 39.925781 L 29.648438 42.175781 L 22.625 42.175781 L 20.605469 43.167969 L 29.648438 43.167969 L 32.890625 40.917969 L 40.535156 35.609375 L 43.996094 33.207031 Z M 28.09375 37.910156 L 27.832031 38.1875 C 27.832031 38.1875 27.9375 38.46875 27.96875 38.558594 L 28.277344 38.410156 C 28.175781 38.136719 28.167969 38.113281 28.09375 37.910156 Z M 28.09375 37.910156 "/>
<path style="fill:none;stroke-width:11.338582;stroke-linecap:butt;stroke-linejoin:miter;stroke:rgb(12.941177%,12.941177%,12.941177%);stroke-opacity:1;stroke-miterlimit:4;" d="M 605.493171 588.014735 L 766.69824 844.525659 L 486.331328 780.16173 L 865.547063 1098.792703 L 849.721804 1115.798952 L 841.454877 1124.538275 C 841.454877 1124.538275 847.596023 1141.190227 854.918158 1161.267049 L 622.971815 1275.114439 L 896.37089 1275.114439 L 994.39302 1207.089442 L 1225.512669 1046.592966 L 1330.148341 973.962111 L 1315.858368 759.84871 L 1315.858368 746.267331 L 1431.949638 759.84871 L 1315.858368 635.136217 L 1166.108897 657.811216 L 1139.536632 661.82658 L 1090.997963 780.16173 L 1062.299918 831.298576 Z M 605.493171 588.014735 " transform="matrix(0.0330761,0,0,0.0330761,0.00000520066,-0.00000172213)"/>
</g>
</svg>
